Dominus_Dark_Funeral/scalable/apps/preferences-desktop-keyboard.svg

<?xml version="1.0" encoding="UTF-8" standalone="no"?><svg xmlns:dc="http://purl.org/dc/elements/1.1/" xmlns:cc="http://creativecommons.org/ns#" xmlns:rdf="http://www.w3.org/1999/02/22-rdf-syntax-ns#" xmlns="http://www.w3.org/2000/svg" xmlns:xlink="http://www.w3.org/1999/xlink" width="48" height="48" viewBox="0 0 12.7 12.7"><metadata><rdf:RDF><cc:Work><dc:format>image/svg+xml</dc:format><dc:type rdf:resource="http://purl.org/dc/dcmitype/StillImage"/><dc:title/></cc:Work></rdf:RDF></metadata><defs><linearGradient id="h"><stop offset="0" stop-color="#f2f2f2"/><stop offset="1" stop-color="#ccc"/></linearGradient><linearGradient id="f"><stop offset="0" stop-color="#1c241f"/><stop offset="1" stop-color="#afe9c6"/></linearGradient><linearGradient id="e"><stop offset="0" stop-color="#060000"/><stop offset="1" stop-color="#000004" stop-opacity="0"/></linearGradient><linearGradient y2="48.57" x2="91.04" y1="48.57" x1="9.95" gradientUnits="userSpaceOnUse" id="a"><stop offset="0" stop-color="#888"/><stop offset=".5"/></linearGradient><linearGradient y2="73.31" x2="52.15" y1="1.83" x1="52.15" gradientUnits="userSpaceOnUse" id="b"><stop offset=".5" stop-color="#f7f7f5"/><stop offset="1" stop-color="#ddd"/></linearGradient><linearGradient id="c" gradientUnits="userSpaceOnUse" x1=".15" y1="50.28" x2="104.15" y2="50.28"><stop offset="0" stop-color="#ddd"/><stop offset=".68" stop-color="#a5acb3"/><stop offset=".81" stop-color="#b0b5bb"/><stop offset=".88" stop-color="#aeb3b8"/><stop offset=".92" stop-color="#a7abb0"/><stop offset=".97" stop-color="#b6b8ba"/><stop offset=".99" stop-color="#8c8c8d"/><stop offset="1" stop-color="#888"/></linearGradient><radialGradient gradientUnits="userSpaceOnUse" gradientTransform="matrix(1 0 0 1.0994 0 -11.02)" r="79.18" cy="92.66" cx="53.33" id="d"><stop offset=".5" stop-color="#f7f7f5"/><stop offset="1" stop-color="#ddd"/></radialGradient><linearGradient xlink:href="#a" id="k" gradientUnits="userSpaceOnUse" x1="9.95" y1="48.57" x2="91.04" y2="48.57" gradientTransform="matrix(.1415 0 0 .1415 1.556 -2.11)"/><linearGradient id="g"><stop offset="0" stop-color="#b7bec8"/><stop offset=".053" stop-color="#ccc"/><stop offset=".391" stop-color="#999"/><stop offset=".704" stop-color="gray"/><stop offset=".954" stop-color="#333"/><stop offset="1"/></linearGradient><linearGradient xlink:href="#g" id="i" x1=".363" y1="2.014" x2="11.934" y2="6.492" gradientUnits="userSpaceOnUse"/><linearGradient xlink:href="#h" id="j" x1="1.907" y1="5.631" x2="10.793" y2="5.631" gradientUnits="userSpaceOnUse"/></defs><path d="M6.357.1c-1.54 0-2.78.28-3.69.86a3.67 3.67 0 0 0-1.66 3.26c0 1.91 1.54 4.47 2.01 5.2.54.85 1.13 1.61 1.65 2.16.68.7 1.21 1.03 1.69 1.03s1.01-.33 1.69-1.03c.52-.55 1.11-1.31 1.65-2.15.47-.74 2-3.3 2-5.21 0-1.42-.57-2.54-1.65-3.25A6.75 6.75 0 0 0 6.357.1z" fill="url(#i)"/><path d="M6.356.438c-1.28 0-2.31.232-3.066.714a3.05 3.05 0 0 0-1.38 2.71c0 1.586 1.28 3.713 1.67 4.32.45.706.94 1.338 1.372 1.795.565.582 1.005.856 1.404.856s.84-.274 1.404-.856c.432-.457.923-1.089 1.371-1.787.391-.615 1.662-2.742 1.662-4.329 0-1.18-.473-2.11-1.37-2.7A5.609 5.609 0 0 0 6.355.438z" fill="url(#j)"/><path d="M7.772 6.457c0 .321.016.635.054.887h-.604l-.061-.467h-.023c-.198.292-.606.552-1.132.552-.75 0-1.132-.528-1.132-1.064 0-.894.794-1.385 2.224-1.377v-.076c0-.306-.083-.865-.84-.858-.352 0-.712.1-.972.276l-.153-.453a2.397 2.397 0 0 1 1.224-.32c1.14 0 1.415.773 1.415 1.515zM6.066 2.096l.673 1.094h-.474l-.934-1.094zm1.048 3.36c-.734-.016-1.568.112-1.568.834 0 .443.29.641.627.641a.934.934 0 0 0 .911-.62.688.688 0 0 0 .032-.213v-.643z" fill="url(#k)"/></svg>

<?xml version="1.0" encoding="UTF-8" standalone="no"?>
<svg
   xmlns:dc="http://purl.org/dc/elements/1.1/"
   xmlns:cc="http://creativecommons.org/ns#"
   xmlns:rdf="http://www.w3.org/1999/02/22-rdf-syntax-ns#"
   xmlns:svg="http://www.w3.org/2000/svg"
   xmlns="http://www.w3.org/2000/svg"
   xmlns:xlink="http://www.w3.org/1999/xlink"
   xmlns:sodipodi="http://sodipodi.sourceforge.net/DTD/sodipodi-0.dtd"
   xmlns:inkscape="http://www.inkscape.org/namespaces/inkscape"
   width="48"
   height="48"
   viewBox="0 0 12.7 12.7"
   version="1.1"
   id="svg75"
   sodipodi:docname="preferences-desktop-keyboard.svg"
   inkscape:version="0.92.4 (5da689c313, 2019-01-14)">
  <sodipodi:namedview
     pagecolor="#ffffff"
     bordercolor="#666666"
     borderopacity="1"
     objecttolerance="10"
     gridtolerance="10"
     guidetolerance="10"
     inkscape:pageopacity="0"
     inkscape:pageshadow="2"
     inkscape:window-width="1112"
     inkscape:window-height="480"
     id="namedview77"
     showgrid="false"
     inkscape:zoom="4.9166667"
     inkscape:cx="2.1355932"
     inkscape:cy="24"
     inkscape:window-x="0"
     inkscape:window-y="25"
     inkscape:window-maximized="0"
     inkscape:current-layer="svg75" />
  <metadata
     id="metadata2">
    <rdf:RDF>
      <cc:Work>
        <dc:format>image/svg+xml</dc:format>
        <dc:type
           rdf:resource="http://purl.org/dc/dcmitype/StillImage" />
        <dc:title></dc:title>
      </cc:Work>
    </rdf:RDF>
  </metadata>
  <defs
     id="defs67">
    <linearGradient
       id="h">
      <stop
         offset="0"
         stop-color="#f2f2f2"
         id="stop4" />
      <stop
         offset="1"
         stop-color="#ccc"
         id="stop6" />
    </linearGradient>
    <linearGradient
       id="f">
      <stop
         offset="0"
         stop-color="#1c241f"
         id="stop9" />
      <stop
         offset="1"
         stop-color="#afe9c6"
         id="stop11" />
    </linearGradient>
    <linearGradient
       id="e">
      <stop
         offset="0"
         stop-color="#060000"
         id="stop14" />
      <stop
         offset="1"
         stop-color="#000004"
         stop-opacity="0"
         id="stop16" />
    </linearGradient>
    <linearGradient
       y2="48.57"
       x2="91.04"
       y1="48.57"
       x1="9.95"
       gradientUnits="userSpaceOnUse"
       id="a">
      <stop
         offset="0"
         stop-color="#888"
         id="stop19" />
      <stop
         offset=".5"
         id="stop21" />
    </linearGradient>
    <linearGradient
       y2="73.31"
       x2="52.15"
       y1="1.83"
       x1="52.15"
       gradientUnits="userSpaceOnUse"
       id="b">
      <stop
         offset=".5"
         stop-color="#f7f7f5"
         id="stop24" />
      <stop
         offset="1"
         stop-color="#ddd"
         id="stop26" />
    </linearGradient>
    <linearGradient
       id="c"
       gradientUnits="userSpaceOnUse"
       x1=".15"
       y1="50.28"
       x2="104.15"
       y2="50.28">
      <stop
         offset="0"
         stop-color="#ddd"
         id="stop29" />
      <stop
         offset=".68"
         stop-color="#a5acb3"
         id="stop31" />
      <stop
         offset=".81"
         stop-color="#b0b5bb"
         id="stop33" />
      <stop
         offset=".88"
         stop-color="#aeb3b8"
         id="stop35" />
      <stop
         offset=".92"
         stop-color="#a7abb0"
         id="stop37" />
      <stop
         offset=".97"
         stop-color="#b6b8ba"
         id="stop39" />
      <stop
         offset=".99"
         stop-color="#8c8c8d"
         id="stop41" />
      <stop
         offset="1"
         stop-color="#888"
         id="stop43" />
    </linearGradient>
    <radialGradient
       gradientUnits="userSpaceOnUse"
       gradientTransform="matrix(1 0 0 1.0994 0 -11.02)"
       r="79.18"
       cy="92.66"
       cx="53.33"
       id="d">
      <stop
         offset=".5"
         stop-color="#f7f7f5"
         id="stop46" />
      <stop
         offset="1"
         stop-color="#ddd"
         id="stop48" />
    </radialGradient>
    <linearGradient
       xlink:href="#a"
       id="k"
       gradientUnits="userSpaceOnUse"
       x1="9.95"
       y1="48.57"
       x2="91.04"
       y2="48.57"
       gradientTransform="matrix(0.1415,0,0,0.1415,1.556,-2.11)" />
    <linearGradient
       id="g">
      <stop
         offset="0"
         stop-color="#b7bec8"
         id="stop52" />
      <stop
         offset=".053"
         stop-color="#ccc"
         id="stop54" />
      <stop
         offset=".391"
         stop-color="#999"
         id="stop56" />
      <stop
         offset=".704"
         stop-color="gray"
         id="stop58" />
      <stop
         offset=".954"
         stop-color="#333"
         id="stop60" />
      <stop
         offset="1"
         id="stop62" />
    </linearGradient>
    <linearGradient
       xlink:href="#g"
       id="i"
       x1=".363"
       y1="2.014"
       x2="11.934"
       y2="6.492"
       gradientUnits="userSpaceOnUse" />
    <linearGradient
       xlink:href="#h"
       id="j"
       x1="1.907"
       y1="5.631"
       x2="10.793"
       y2="5.631"
       gradientUnits="userSpaceOnUse" />
  </defs>
  <path
     d="m 6.357,0.1 c -1.54,0 -2.78,0.28 -3.69,0.86 a 3.67,3.67 0 0 0 -1.66,3.26 c 0,1.91 1.54,4.47 2.01,5.2 0.54,0.85 1.13,1.61 1.65,2.16 0.68,0.7 1.21,1.03 1.69,1.03 0.48,0 1.01,-0.33 1.69,-1.03 0.52,-0.55 1.11,-1.31 1.65,-2.15 0.47,-0.74 2,-3.3 2,-5.21 0,-1.42 -0.57,-2.54 -1.65,-3.25 A 6.75,6.75 0 0 0 6.357,0.1 Z"
     id="path69"
     style="fill:url(#i)"
     inkscape:connector-curvature="0" />
  <path
     d="m 6.356,0.438 c -1.28,0 -2.31,0.232 -3.066,0.714 a 3.05,3.05 0 0 0 -1.38,2.71 c 0,1.586 1.28,3.713 1.67,4.32 0.45,0.706 0.94,1.338 1.372,1.795 0.565,0.582 1.005,0.856 1.404,0.856 0.399,0 0.84,-0.274 1.404,-0.856 C 8.192,9.52 8.683,8.888 9.131,8.19 9.522,7.575 10.793,5.448 10.793,3.861 c 0,-1.18 -0.473,-2.11 -1.37,-2.7 A 5.609,5.609 0 0 0 6.355,0.438 Z"
     id="path71"
     style="fill:url(#j)"
     inkscape:connector-curvature="0" />
  <path
     d="m 7.772,6.457 c 0,0.321 0.016,0.635 0.054,0.887 H 7.222 L 7.161,6.877 H 7.138 C 6.94,7.169 6.532,7.429 6.006,7.429 5.256,7.429 4.874,6.901 4.874,6.365 4.874,5.471 5.668,4.98 7.098,4.988 V 4.912 c 0,-0.306 -0.083,-0.865 -0.84,-0.858 -0.352,0 -0.712,0.1 -0.972,0.276 L 5.133,3.877 a 2.397,2.397 0 0 1 1.224,-0.32 c 1.14,0 1.415,0.773 1.415,1.515 z M 6.066,2.096 6.739,3.19 H 6.265 L 5.331,2.096 Z m 1.048,3.36 C 6.38,5.44 5.546,5.568 5.546,6.29 c 0,0.443 0.29,0.641 0.627,0.641 A 0.934,0.934 0 0 0 7.084,6.311 0.688,0.688 0 0 0 7.116,6.098 V 5.455 Z"
     id="path73"
     style="fill:url(#k)"
     inkscape:connector-curvature="0" />
</svg>
